X:1
T:Title
L:1/8
M:3/4
I:linebreak $
K:D
V:1 treble nm="idle" snm="idle"
V:1
 [DE]2 !arpeggio!F2 A3 | F2 A3 de | f3 a2 fe | d B3 Bc | d2 A2 F2 | B A3 F2 | E4 EF | E4 DE |$ %8
 F2 A3 DE | F2 A3 de | f3 a fe | d B3 B=c | d2 A2 F2 | G2 F3 E2 | DE | D4 de ||$ f3 a f2 | %17
 e3 f2 e | d2 B2 (3Bcd | A4 F2 | B2 A2 F2 | B A3 F2 | E4 EF | E4 DE |$ F2 A3 DE | F2 A3 de | %26
 f3 a fe | d2 B3 Bc | d2 A2 F2 | G2 F3 E2 | D4 DE | D6 |] %32
